flaticon/dialogue/chat-31.svg

<svg xmlns="http://www.w3.org/2000/svg" width="32" height="32" viewBox="0 0 24 24">
    <path d="M7.800781 10.800781L13.398438 10.800781C13.621094 10.800781 13.800781 10.621094 13.800781 10.398438 13.800781 10.179688 13.621094 10 13.398438 10L7.800781 10C7.578125 10 7.398438 10.179688 7.398438 10.398438 7.398438 10.621094 7.578125 10.800781 7.800781 10.800781zM15.601562 12.800781L5.601562 12.800781C5.378906 12.800781 5.199219 12.980469 5.199219 13.199219 5.199219 13.421875 5.378906 13.601562 5.601562 13.601562L15.601562 13.601562C15.820312 13.601562 16 13.421875 16 13.199219 16 12.980469 15.820312 12.800781 15.601562 12.800781zM15.601562 15.601562L5.601562 15.601562C5.378906 15.601562 5.199219 15.777344 5.199219 16 5.199219 16.222656 5.378906 16.398438 5.601562 16.398438L15.601562 16.398438C15.820312 16.398438 16 16.222656 16 16 16 15.777344 15.820312 15.601562 15.601562 15.601562zM15.601562 15.601562"/>
    <path d="M 22.359375 14.816406 C 23.433594 13.308594 24 11.566406 24 9.765625 C 24 4.601562 19.335938 0.398438 13.601562 0.398438 C 9.652344 0.398438 6 2.457031 4.261719 5.644531 C 1.679688 7.351562 0 10.101562 0 13.199219 C 0 15 0.566406 16.742188 1.640625 18.25 C 1.4375 20.480469 0.898438 22.136719 0.117188 22.917969 C -0.00390625 23.039062 -0.0351562 23.226562 0.0429688 23.378906 C 0.109375 23.515625 0.25 23.601562 0.398438 23.601562 C 0.417969 23.601562 0.4375 23.597656 0.457031 23.597656 C 0.59375 23.578125 3.828125 23.109375 6.183594 21.761719 C 7.515625 22.296875 8.933594 22.566406 10.398438 22.566406 C 13.808594 22.566406 16.839844 21.078125 18.738281 18.789062 C 20.945312 19.785156 23.433594 20.144531 23.542969 20.160156 C 23.5625 20.164062 23.582031 20.164062 23.601562 20.164062 C 23.75 20.164062 23.890625 20.082031 23.957031 19.945312 C 24.035156 19.789062 24.003906 19.605469 23.882812 19.484375 C 23.101562 18.703125 22.5625 17.046875 22.359375 14.816406 Z M 10.398438 21.765625 C 9.242188 21.765625 8.121094 21.582031 7.054688 21.226562 C 8.386719 20.390625 8.390625 20.324219 8.386719 20.097656 C 8.386719 19.957031 8.3125 19.824219 8.191406 19.753906 C 8.011719 19.644531 7.78125 19.695312 7.660156 19.863281 C 7.464844 20.015625 6.660156 20.53125 5.945312 20.972656 C 4.464844 21.867188 2.488281 22.378906 1.320312 22.625 C 2.039062 21.355469 2.335938 19.574219 2.453125 18.171875 C 2.460938 18.074219 2.433594 17.976562 2.375 17.898438 C 1.34375 16.503906 0.800781 14.875 0.800781 13.199219 C 0.800781 10.3125 2.410156 7.757812 4.871094 6.203125 C 5.027344 6.105469 5.183594 6.011719 5.34375 5.921875 C 5.378906 5.902344 5.417969 5.882812 5.453125 5.863281 C 5.621094 5.773438 5.792969 5.6875 5.964844 5.605469 C 6.027344 5.578125 6.09375 5.546875 6.15625 5.519531 C 6.332031 5.441406 6.511719 5.367188 6.691406 5.300781 C 6.753906 5.277344 6.816406 5.253906 6.878906 5.234375 C 7.023438 5.183594 7.167969 5.136719 7.3125 5.089844 C 7.378906 5.070312 7.445312 5.050781 7.511719 5.03125 C 7.699219 4.976562 7.890625 4.929688 8.082031 4.886719 C 8.148438 4.875 8.214844 4.859375 8.28125 4.847656 C 8.457031 4.8125 8.628906 4.78125 8.804688 4.753906 C 8.84375 4.75 8.882812 4.742188 8.925781 4.734375 C 9.136719 4.707031 9.347656 4.683594 9.5625 4.667969 C 9.617188 4.664062 9.675781 4.660156 9.730469 4.65625 C 9.953125 4.644531 10.175781 4.632812 10.402344 4.632812 C 14.703125 4.632812 18.351562 7.171875 19.566406 10.65625 C 19.847656 11.460938 20 12.3125 20 13.199219 C 20 13.394531 19.988281 13.585938 19.976562 13.777344 C 19.972656 13.828125 19.96875 13.875 19.960938 13.925781 C 19.945312 14.105469 19.925781 14.28125 19.894531 14.457031 C 19.894531 14.472656 19.890625 14.484375 19.890625 14.5 C 19.859375 14.683594 19.816406 14.863281 19.773438 15.046875 C 19.757812 15.097656 19.746094 15.152344 19.730469 15.207031 C 19.6875 15.367188 19.640625 15.527344 19.585938 15.6875 C 19.574219 15.722656 19.5625 15.757812 19.550781 15.789062 C 19.492188 15.949219 19.429688 16.105469 19.363281 16.257812 C 19.339844 16.316406 19.316406 16.371094 19.289062 16.429688 C 19.214844 16.589844 19.136719 16.753906 19.050781 16.910156 C 19.03125 16.945312 19.007812 16.984375 18.988281 17.019531 C 18.914062 17.152344 18.835938 17.28125 18.753906 17.410156 C 18.722656 17.464844 18.6875 17.519531 18.652344 17.570312 C 18.554688 17.71875 18.449219 17.863281 18.339844 18.007812 C 16.609375 20.273438 13.695312 21.765625 10.398438 21.765625 Z M 19.238281 18.136719 C 19.253906 18.113281 19.269531 18.089844 19.285156 18.0625 C 19.378906 17.925781 19.46875 17.785156 19.550781 17.644531 C 19.597656 17.566406 19.644531 17.484375 19.6875 17.40625 C 19.738281 17.316406 19.789062 17.226562 19.835938 17.136719 C 19.875 17.054688 19.917969 16.972656 19.957031 16.890625 C 20.019531 16.761719 20.074219 16.636719 20.128906 16.503906 C 20.167969 16.414062 20.203125 16.320312 20.238281 16.226562 C 20.28125 16.113281 20.324219 16 20.363281 15.882812 C 20.386719 15.808594 20.414062 15.730469 20.433594 15.65625 C 20.472656 15.53125 20.507812 15.402344 20.539062 15.273438 C 20.554688 15.21875 20.570312 15.164062 20.582031 15.105469 C 20.625 14.925781 20.660156 14.746094 20.691406 14.5625 C 20.699219 14.503906 20.707031 14.449219 20.714844 14.390625 C 20.734375 14.25 20.75 14.105469 20.761719 13.960938 C 20.769531 13.902344 20.773438 13.84375 20.777344 13.789062 C 20.789062 13.59375 20.800781 13.398438 20.800781 13.199219 C 20.800781 8.035156 16.136719 3.835938 10.398438 3.835938 C 10.207031 3.835938 10.019531 3.839844 9.828125 3.847656 C 9.761719 3.851562 9.691406 3.859375 9.625 3.863281 C 9.503906 3.871094 9.386719 3.878906 9.269531 3.890625 C 9.183594 3.898438 9.097656 3.910156 9.015625 3.921875 C 8.914062 3.933594 8.816406 3.945312 8.71875 3.957031 C 8.625 3.972656 8.53125 3.988281 8.4375 4.003906 C 8.351562 4.019531 8.269531 4.035156 8.183594 4.050781 C 8.082031 4.070312 7.980469 4.089844 7.878906 4.113281 C 7.808594 4.128906 7.738281 4.148438 7.667969 4.164062 C 7.558594 4.191406 7.445312 4.21875 7.339844 4.25 C 7.289062 4.261719 7.242188 4.277344 7.191406 4.292969 C 6.777344 4.414062 6.367188 4.558594 5.972656 4.730469 C 5.941406 4.742188 5.910156 4.753906 5.878906 4.765625 C 5.84375 4.78125 5.808594 4.796875 5.769531 4.8125 C 7.554688 2.578125 10.472656 1.199219 13.601562 1.199219 C 18.894531 1.199219 23.199219 5.042969 23.199219 9.765625 C 23.199219 11.441406 22.65625 13.066406 21.625 14.464844 C 21.566406 14.542969 21.539062 14.640625 21.546875 14.738281 C 21.664062 16.140625 21.960938 17.921875 22.679688 19.191406 C 21.804688 19.007812 20.472656 18.671875 19.238281 18.136719 Z M 19.238281 18.136719"/>
</svg>

<svg xmlns="http://www.w3.org/2000/svg" width="32" height="32" viewBox="0 0 24 24">
    <path d="M7.8 10.8h5.598a.401.401 0 0 0 0-.8H7.801a.401.401 0 1 0 0 .8zm0 0M15.602 12.8h-10a.401.401 0 1 0 0 .802h10a.401.401 0 0 0 0-.801zm0 0M15.602 15.602h-10a.398.398 0 1 0 0 .796h10a.398.398 0 1 0 0-.796zm0 0"/>
    <path d="M22.36 14.816c1.074-1.507 1.64-3.25 1.64-5.05C24 4.602 19.336.398 13.602.398 9.652.398 6 2.457 4.262 5.645 1.68 7.352 0 10.102 0 13.199 0 15 .566 16.742 1.64 18.25c-.202 2.23-.742 3.887-1.523 4.668a.398.398 0 0 0-.074.46.398.398 0 0 0 .355.224c.02 0 .04-.004.059-.004.137-.02 3.371-.489 5.727-1.836a11.25 11.25 0 0 0 4.214.804c3.41 0 6.442-1.488 8.34-3.777 2.207.996 4.696 1.356 4.805 1.371.02.004.039.004.059.004a.397.397 0 0 0 .281-.68c-.781-.78-1.32-2.437-1.524-4.668zm-11.962 6.95c-1.156 0-2.277-.184-3.343-.54 1.332-.835 1.336-.902 1.332-1.128a.398.398 0 0 0-.196-.344.4.4 0 0 0-.53.11c-.196.152-1 .667-1.716 1.109-1.48.894-3.457 1.406-4.625 1.652.72-1.27 1.016-3.05 1.133-4.453a.402.402 0 0 0-.078-.274C1.344 16.504.801 14.875.801 13.2c0-2.886 1.61-5.441 4.07-6.996.156-.098.313-.191.473-.281.035-.02.074-.04.11-.059.167-.09.339-.176.51-.258l.192-.085c.176-.079.356-.153.535-.22.063-.023.125-.046.188-.066.144-.05.289-.097.434-.144l.199-.059c.187-.054.379-.101.57-.144.066-.012.133-.028.2-.04.175-.035.347-.066.523-.093.039-.004.078-.012.12-.02.212-.027.423-.05.637-.066l.168-.012c.223-.011.446-.023.672-.023 4.301 0 7.95 2.539 9.164 6.023.282.805.434 1.656.434 2.543 0 .196-.012.387-.023.578-.004.051-.008.098-.016.149-.016.18-.035.355-.066.531 0 .016-.004.027-.004.043-.032.184-.075.363-.118.547-.015.05-.027.105-.043.16a7.48 7.48 0 0 1-.18.582c-.058.16-.12.316-.187.469a7.838 7.838 0 0 1-.313.652l-.062.11a7.944 7.944 0 0 1-.234.39 8.163 8.163 0 0 1-.414.598c-1.73 2.265-4.645 3.758-7.942 3.758zm8.84-3.63c.016-.023.032-.046.047-.073.094-.137.184-.278.266-.418.047-.079.094-.16.137-.239.05-.09.101-.18.148-.27.039-.081.082-.163.121-.245.063-.13.117-.254.172-.387.039-.09.074-.184.11-.277.042-.114.085-.227.124-.344.024-.074.051-.153.07-.227.04-.125.075-.254.106-.383a8.343 8.343 0 0 0 .152-.71l.024-.172c.02-.141.035-.286.047-.43.008-.059.011-.117.015-.172.012-.195.024-.39.024-.59 0-5.164-4.664-9.363-10.403-9.363-.191 0-.378.004-.57.012l-.203.015c-.121.008-.238.016-.355.028a5.01 5.01 0 0 0-.254.03l-.297.036-.281.047-.254.047c-.102.02-.204.039-.305.062-.07.016-.14.035-.211.051-.11.027-.223.055-.328.086a10.286 10.286 0 0 0-1.367.48l-.094.036-.11.046C7.556 2.579 10.474 1.2 13.603 1.2c5.293 0 9.597 3.844 9.597 8.567 0 1.675-.543 3.3-1.574 4.699a.402.402 0 0 0-.078.273c.117 1.403.414 3.184 1.133 4.453-.875-.183-2.207-.52-3.442-1.054zm0 0"/>
</svg>
